img/like.svg

<svg width="16" height="16" viewBox="0 0 16 16" fill="none" xmlns="http://www.w3.org/2000/svg">
<path fill-rule="evenodd" clip-rule="evenodd" d="M9.4547 2.16732C9.36168 2.16732 9.27547 2.21676 9.22843 2.29736L9.22433 2.30438L6.16683 7.26115V13.834H11.8907C12.0135 13.834 12.1198 13.7487 12.1464 13.629L12.1487 13.6186L13.8487 6.97883C13.8798 6.8179 13.7565 6.66732 13.5915 6.66732H11.0002C10.566 6.66732 10.1268 6.52228 9.80696 6.21014C9.47075 5.88199 9.31488 5.41203 9.41491 4.90572L9.89414 2.48001C9.92614 2.31806 9.80219 2.16732 9.63725 2.16732H9.4547ZM4.8335 13.834V7.73875H2.47118C2.32739 7.73875 2.2104 7.85476 2.20929 7.99872C2.20929 7.99872 2.20929 7.99872 2.20929 7.99872L2.16684 13.5701C2.16572 13.7154 2.28327 13.834 2.42868 13.834H4.8335ZM5.12809 6.40541L8.08155 1.61731C8.36843 1.13222 8.89032 0.833984 9.4547 0.833984H9.63725C10.6424 0.833984 11.397 1.75237 11.2022 2.73844L10.723 5.16415C10.7144 5.20732 10.72 5.22693 10.7213 5.23124C10.7228 5.23604 10.726 5.24402 10.7383 5.25596C10.7661 5.28317 10.8492 5.33398 11.0002 5.33398H13.5915C14.6121 5.33398 15.3701 6.27923 15.1487 7.27539L15.1464 7.28579L13.4453 13.93C13.2788 14.6537 12.6343 15.1673 11.8907 15.1673H2.42868C1.54298 15.1673 0.826756 14.4457 0.833544 13.56C0.833544 13.56 0.833544 13.56 0.833544 13.56L0.875993 7.98854C0.88271 7.11235 1.59485 6.40541 2.47118 6.40541H5.12809Z" fill="#9A9CA5"/>
</svg>

<svg width="16" height="16" fill="none" xmlns="http://www.w3.org/2000/svg"><path fill-rule="evenodd" clip-rule="evenodd" d="M9.455 2.167c-.093 0-.18.05-.227.13l-.004.007-3.057 4.957v6.573h5.724a.26.26 0 00.255-.205l.003-.01 1.7-6.64a.262.262 0 00-.258-.312h-2.59c-.435 0-.874-.145-1.194-.457a1.406 1.406 0 01-.392-1.304l.48-2.426a.262.262 0 00-.258-.313h-.182zM4.833 13.834V7.739H2.471a.262.262 0 00-.262.26l-.042 5.571a.262.262 0 00.262.264h2.405zm.295-7.429l2.954-4.788A1.595 1.595 0 019.455.834h.182c1.005 0 1.76.918 1.565 1.904l-.479 2.426a.139.139 0 00-.002.067.057.057 0 00.017.025c.028.027.111.078.262.078h2.591c1.021 0 1.78.945 1.558 1.941l-.003.01-1.7 6.645a1.595 1.595 0 01-1.555 1.237H2.429A1.595 1.595 0 01.834 13.56l.042-5.571a1.595 1.595 0 011.595-1.584h2.657z" fill="#9A9CA5"/></svg>
